X:815
T:Reel 815
M:4/4
K:Dmin
L:1/8
DE|F2FG AGAc|B2GB AGEG|c2cA BGEG|GEEF GBAG|F2FE FGAG|AGAB cBAc|BAGF GBcG|EFGE F2|GE|F2FE FGAc|cdcA G2DE|FEFE FGAB|cBcA GFDE|FEFE FGAB|cAFG AGFD|FEFG ABcA|GECE G2|
